!!!!SEGMENT: pl-stab--26a--006_nowakiewicz-kazimierz--missa-in-d-sanctus.krn
!!!cenid: 18xx:3516
!!!COM: Nowakiewicz, Kazimierz
!!!COM-rismID: pe30020309
!!!CDT: <1800->1824
!!!CNT: Polish
!!!OPR: Missa in D
!!!OTL: Sanctus
!!!OMV: 006
!!!PDT: 1810
!!!AGN:
!!!SMS-siglum: PL-STAb
!!!SMS-shelfmark: 26a
!!!SMS-shelfwork: M
!!!SMS-variant:
!!!SMS-altvar:
!!!NIFC-rismSourceID: 301050704
!!!NIFC-islandoraID: pl-stab:3636
!!!URL-pdf-islandora: https://repozytorium.nifc.pl/islandora/object/pl-stab%3A3636/datastream/PDF/view
!!!URL-scan: https://polish.musicsources.pl/pl/lokalizacje/galeria/rekopisy/4469 @EN{Scan on Polish Music Sources Website} @PL{Skany w portalu Dziedzictwo Muzyki Polskiej w otwartym dostępie}
!!!ONB-nifc: UWAGA: części Mszy: 1. Kyrie, 2. Gloria, 3. Credo, 4. Et incarnatus, 5. Et resurrexit, 6. Sanctus, 7. Benedictus, 8. Osanna, 9. Agnus Dei, 10. Dona nobis
!!!AIN: 1 alto 1 bass 2 clrno 2 oboe 1 organ 1 soprn 1 tenor 1 viola 1 violn
!!!key: D
!!!OMD:
!!!OMD-mod: Adagio
!!!filter-modern: sic -sq | shed -e "s/^(\d+[\/\\]right)/$1yy/I;s/^(\d+[\/\\]left)/$1yy/I" | shed -e "s/:rj/:RJ/L" | shed -k -e "s/([^a-gA-Gn#X-])[<>]/$1/g" | shed -k -e "s/:TUP:/:tup:/L" | shed -e "s/^(X?)rep$/$1REP/I" | shed -e "s/LO:DY:(a|b|rj|t)/LO:dy:$1/L" | shed -e "s/-//B" | autostem -r | tie -s  | modori -m | humtr -p
**kern	**dynam	**kern	**dynam	**kern	**dynam	**kern	**text	**dynam	**kern	**text	**dynam	**kern	**text	**dynam	**kern	**text	**dynam	**kern	**dynam	**kern	**dynam	**kern	**dynam	**kern	**dynam
*part11	*part11	*part10	*part10	*part9	*part9	*part8	*part8	*part8	*part7	*part7	*part7	*part6	*part6	*part6	*part5	*part5	*part5	*part4	*part4	*part3	*part3	*part2	*part2	*part1	*part1
*staff11	*	*staff10	*	*staff9	*	*staff8	*staff8	*staff8	*staff7	*staff7	*staff7	*staff6	*staff6	*	*staff5	*staff5	*	*staff4	*	*staff3	*	*staff2	*	*staff1	*
*Iorgan	*	*Iviola	*	*Ivioln	*	*Ibass	*	*	*Itenor	*	*	*Ialto	*	*	*Isoprn	*	*	*Iclrno	*	*Iclrno	*	*Ioboe	*	*Ioboe	*
*I"Organo.	*	*I"Alto Viola	*	*I"Violino SecuNdo 1mo	*	*I"Baſso	*	*	*I"Tenor	*	*	*I"Alto	*	*	*I"Canto	*	*	*I"Clarino Secundo et Cornu	*	*I"Clarino Primo et Cornu	*	*I"Oboe Secundo	*	*I"Oboe Primo	*
*I'org	*	*I'a-vla	*	*I'vl 1 & 2	*	*I'B	*	*	*I'T	*	*	*I'A	*	*	*I'S	*	*	*I'clar 2 & cor 2	*	*I'clar 1 & cor 1	*	*I'ob 2	*	*I'ob1	*
*ICklav	*	*ICstr	*	*ICstr	*	*ICvox	*	*	*ICvox	*	*	*ICvox	*	*	*ICvox	*	*	*ICbras	*	*ICbras	*	*ICww	*	*ICww	*
*IGcont	*	*	*	*	*	*IGcoro	*	*	*IGcoro	*	*	*IGcoro	*	*	*IGcoro	*	*	*	*	*	*	*	*	*	*
*mI"Organo	*	*mI"Viola	*	*mI"Violino I e II	*	*mI"Basso	*	*	*mI"Tenore	*	*	*	*	*	*mI"Soprano	*	*	*mI"Clarino II e Corno II	*	*mI"Clarino I e Corno I	*	*mI"Oboe II	*	*mI"Oboe I	*
*clefF4	*	*clefC3	*	*clefG2	*	*clefF4	*	*	*clefC4	*	*	*clefC3	*	*	*clefC1	*	*	*clefG2	*	*clefG2	*	*clefG2	*	*clefG2	*
*	*	*	*	*	*	*	*	*	*mclefGv2	*	*	*mclefG2	*	*	*mclefG2	*	*	*	*	*	*	*	*	*	*
*	*	*	*	*	*	*	*	*	*	*	*	*	*	*	*	*	*	*ITrd-1c-2	*	*ITrd-1c-2	*	*	*	*	*
*k[f#c#]	*	*k[f#c#]	*	*k[f#c#]	*	*k[f#c#]	*	*	*k[f#c#]	*	*	*k[f#c#]	*	*	*k[f#c#]	*	*	*k[f#c#]	*	*k[f#c#]	*	*k[f#c#]	*	*k[f#c#]	*
*D:	*	*D:	*	*D:	*	*D:	*	*	*D:	*	*	*D:	*	*	*D:	*	*	*D:	*	*D:	*	*D:	*	*D:	*
*M2/2	*	*M2/2	*	*M2/2	*	*M2/2	*	*	*M2/2	*	*	*M2/2	*	*	*M2/2	*	*	*M2/2	*	*M2/2	*	*M2/2	*	*M2/2	*
*met(c|)	*	*met(c|)	*	*met(c|)	*	*met(c|)	*	*	*met(c|)	*	*	*met(c|)	*	*	*met(c|)	*	*	*met(c|)	*	*met(c|)	*	*met(c|)	*	*met(c|)	*
*	*	*	*	*	*below	*	*	*	*	*	*	*	*	*	*	*	*	*	*	*	*	*	*	*	*
=1	=1	=1	=1	=1	=1	=1	=1	=1	=1	=1	=1	=1	=1	=1	=1	=1	=1	=1	=1	=1	=1	=1	=1	=1	=1
!	!	!	!	!	!	!	!	!	!	!	!	!	!	!	!	!	!	!	!	!	!	!	!	!	!LO:MO:null:mod=!LO&colon;DY&colon;ed=brack
!	!	!	!	!	!	!	!	!	!	!	!	!	!	!	!	!	!	!	!LO:MO:mod=!null:null	!LO:TX:a:t=in D.:mod=	!	!	!	!	!
!LO:TX:a:t=adagio:mod=	!LO:DY:t=for	!LO:TX:a:t=Adagio:mod=	!	!	!	!LO:TX:a:t=Adagio:mod=	!	!	!LO:TX:a:t=adagio:mod=	!	!	!LO:TX:a:t=adagio:mod=	!	!	!LO:TX:a:t=adagio:mod=	!	!	!LO:TX:a:t=adagio:mod=	!LO:DY:rj:t=fr	!LO:TX:a:t=adagio:mod=	!LO:DY:t=f.	!LO:TX:a:t=adagio:mod=	!LO:DY:t=fr	!LO:TX:a:t=adagio:mod=	!LO:MO:null:mod=f
4.D\	f	4.D/	f	4.d/	f	0r	.	.	0r	.	.	0r	.	.	0r	.	.	4.f#/	f	4.dd\	f	4.dd\	f	4.ff#\	.
16D\LL	.	16E/LL	.	16e/LL	.	.	.	.	.	.	.	.	.	.	.	.	.	8f#/	.	8dd\	.	8dd\	.	8ff#\	.
16E\JJ	.	16F#/JJ	.	16f#/JJ	.	.	.	.	.	.	.	.	.	.	.	.	.	.	.	.	.	.	.	.	.
8F#\L	.	8F#/L	.	8f#/L	.	.	.	.	.	.	.	.	.	.	.	.	.	4.f#/	.	4.dd\	.	4.dd\	.	4.ff#\	.
(16F#\L	.	16G/L	.	16g/L	.	.	.	.	.	.	.	.	.	.	.	.	.	.	.	.	.	.	.	.	.
16G\JJ)	.	16A/JJ	.	16a/JJ	.	.	.	.	.	.	.	.	.	.	.	.	.	.	.	.	.	.	.	.	.
8A\L	.	8A/L	.	8a/L	.	.	.	.	.	.	.	.	.	.	.	.	.	.	.	.	.	.	.	.	.
!LO:TUP:a	!	!LO:TUP:b=kreska zamiast łuku	!	!LO:TUP:a:problem=klamra łukowa i cyfra	!	!	!	!	!	!	!	!	!	!	!	!	!	!	!	!	!	!	!	!	!
24A\L	.	24A/L	.	24a/L	.	.	.	.	.	.	.	.	.	.	.	.	.	8f#/	.	8dd\	.	8dd\	.	8ff#\	.
24B\	.	24B/	.	24b/	.	.	.	.	.	.	.	.	.	.	.	.	.	.	.	.	.	.	.	.	.
24c#\JJ	.	24c#/JJ	.	24cc#/JJ	.	.	.	.	.	.	.	.	.	.	.	.	.	.	.	.	.	.	.	.	.
=2	=2	=2	=2	=2	=2	=2	=2	=2	=2	=2	=2	=2	=2	=2	=2	=2	=2	=2	=2	=2	=2	=2	=2	=2	=2
4d\	.	4.d\	.	4.dd\	.	.	.	.	.	.	.	.	.	.	.	.	.	4f#/	.	4dd\	.	4dd\	.	4ff#\	.
4r	.	.	.	.	.	.	.	.	.	.	.	.	.	.	.	.	.	4r	.	4r	.	4r	.	4r	.
.	.	16e\LL	.	16ee\LL	.	.	.	.	.	.	.	.	.	.	.	.	.	.	.	.	.	.	.	.	.
.	.	16d\JJ	.	16dd\JJ	.	.	.	.	.	.	.	.	.	.	.	.	.	.	.	.	.	.	.	.	.
16c#\LL	.	16c#/LL	.	16cc#/LL	.	.	.	.	.	.	.	.	.	.	.	.	.	2r	.	2r	.	2r	.	2r	.
16B\	.	16B/	.	16b/	.	.	.	.	.	.	.	.	.	.	.	.	.	.	.	.	.	.	.	.	.
16A\	.	16A/	.	16a/	.	.	.	.	.	.	.	.	.	.	.	.	.	.	.	.	.	.	.	.	.
16G\JJ	.	16G/JJ	.	16g/JJ	.	.	.	.	.	.	.	.	.	.	.	.	.	.	.	.	.	.	.	.	.
16F#\LL	.	16F#/LL	.	16f#/LL	.	.	.	.	.	.	.	.	.	.	.	.	.	.	.	.	.	.	.	.	.
16E\	.	16E/	.	16e/	.	.	.	.	.	.	.	.	.	.	.	.	.	.	.	.	.	.	.	.	.
16D\	.	16D/	.	16d/	.	.	.	.	.	.	.	.	.	.	.	.	.	.	.	.	.	.	.	.	.
16C#\JJ	.	16C#/JJ	.	16c#/JJ	.	.	.	.	.	.	.	.	.	.	.	.	.	.	.	.	.	.	.	.	.
=3	=3	=3	=3	=3	=3	=3	=3	=3	=3	=3	=3	=3	=3	=3	=3	=3	=3	=3	=3	=3	=3	=3	=3	=3	=3
*	*	*	*	*	*	*	*	*	*	*	*	*	*	*	*2\right	*	*	*	*	*2\right	*	*	*	*	*
!	!	!	!	!	!	!	!	!	!	!	!	!	!	!	!	!	!	!	!	!LO:TX:b:t=dol.:mod=	!	!	!	!	!
!	!	!	!	!	!	!	!	!	!	!	!	!	!	!	!	!	!	!LO:MO:null:mod=!LO&colon;TX&colon;i&colon;t=Solo	!	!LO:MO:mod=!LO&colon;TX&colon;i&colon;t=Solo	!	!	!	!	!
!	!	!	!	!	!	!	!	!	!	!	!	!	!	!	!	!LO:MO:mod=San-	!	!	!	!LO:TX:a:t=Solo	!	!	!	!	!
4D\	.	4D/	.	4d/	.	2r	.	.	2F#/	San-	.	2r	.	.	2dd\	Sa-	.	2f#/	.	2dd\	.	2r	.	2r	.
4r	.	4r	.	4r	.	.	.	.	.	.	.	.	.	.	.	.	.	.	.	.	.	.	.	.	.
2r	.	2r	.	2r	.	4r	.	.	4A\	-ctus	.	4r	.	.	4ee\	-ctus	.	4a/	.	4ee\	.	4r	.	4r	.
.	.	.	.	.	.	4F#\	San-	.	4d\	.	.	4d\	San-	.	4ff#\	.	.	4dd\	.	4ff#\	.	4f#/	.	4dd\	.
=4	=4	=4	=4	=4	=4	=4	=4	=4	=4	=4	=4	=4	=4	=4	=4	=4	=4	=4	=4	=4	=4	=4	=4	=4	=4
*	*	*	*	*	*	*	*	*	*	*ij	*	*	*	*	*	*ij	*	*	*	*	*	*	*	*	*
!	!	!	!	!	!	!	!	!	!	!	!	!	!	!	!LO:SIC:s=(4gg	!LO:MO:mod=San-	!	!	!	!	!	!	!	!	!
2r	.	2r	.	2r	.	4C#/	-ctus	.	(4e\	San-	.	8e\	-ctus	.	4gg\	Sa-	.	4ee\	.	4gg\	.	4a\	.	4ee\	.
.	.	.	.	.	.	.	.	.	.	.	.	8r	.	.	.	.	.	.	.	.	.	.	.	.	.
*	*	*	*	*	*	*	*ij	*	*	*	*	*	*ij	*	*	*	*	*	*	*	*	*	*	*	*
!	!	!	!	!	!	!	!	!	!	!	!	!	!	!	!LO:SIC:s=4ff#)	!LO:MO:null:mod=.	!	!	!	!	!	!	!	!	!
.	.	.	.	.	.	4D/	San-	.	4d\)	.	.	4f#\	San-	.	4ff#\	-ctus	.	4dd\	.	4ff#\	.	4dd\	.	4ff#\	.
*	*	*	*	*	*	*	*	*	*	*	*	*	*	*	*	*	*	*	*	*	*	*	*	*	*
!	!	!	!	!	!	!	!	!	!	!	!	!	!	!	!	!LO:MO:null:mod=-ctus	!	!	!	!	!	!	!	!	!
8r	.	8r	.	8r	.	4E/	-ctus	.	4c#\	-ctus	.	4g\	.	.	4ee\	.	.	4a/	.	4ee\	.	4ee\	.	4gg\	.
*	*	*	*	*	*	*	*	*	*	*Xij	*	*	*	*	*	*Xij	*	*	*	*	*	*	*	*	*
16AA/LL	.	16A/LL	.	16A/LL	.	.	.	.	.	.	.	.	.	.	.	.	.	.	.	.	.	.	.	.	.
16BB/JJ	.	16B/JJ	.	16B/JJ	.	.	.	.	.	.	.	.	.	.	.	.	.	.	.	.	.	.	.	.	.
!	!	!	!	!	!	!	!	!	!	!	!	!	!LO:MO:null:mod=.	!	!	!	!	!	!	!	!	!	!	!	!
8C#/L	.	8c#/L	.	8c#/L	.	4D/	San-	.	4r	.	.	4f#\	-ctus	.	4r	.	.	4r	.	4r	.	4dd\	.	4ff#\	.
*	*	*	*	*	*	*	*	*	*	*	*	*	*	*	*	*	*	*	*	*	*	*	*	*	*
16C#/L	.	16c#/L	.	16c#/L	.	.	.	.	.	.	.	.	.	.	.	.	.	.	.	.	.	.	.	.	.
16D/JJ	.	16d/JJ	.	16d/JJ	.	.	.	.	.	.	.	.	.	.	.	.	.	.	.	.	.	.	.	.	.
!LO:LB:g=original	!	!LO:LB:g=original	!	!LO:LB:g=original	!	!	!	!	!	!	!	!	!	!	!	!	!	!	!	!	!	!	!	!	!
=5	=5	=5	=5	=5	=5	=5	=5	=5	=5	=5	=5	=5	=5	=5	=5	=5	=5	=5	=5	=5	=5	=5	=5	=5	=5
*	*	*	*	*	*	*	*	*	*2\right	*	*	*	*	*	*	*	*	*	*	*	*	*	*	*	*
!	!	!	!	!	!	!	!	!	!	!	!	!	!LO:MO:null:mod=-ctus	!	!	!	!	!	!	!	!	!	!	!	!
4E\	.	4e\	.	4e/	.	4C#/	-ctus	.	2c#\	Do-	.	4e\	.	.	2ee\	Do-	.	2a/	.	2ee\	.	4cc#\	.	4ee\	.
*	*	*	*	*	*	*	*Xij	*	*	*	*	*	*Xij	*	*	*	*	*	*	*	*	*	*	*	*
4r	.	4r	.	4r	.	4r	.	.	.	.	.	4r	.	.	.	.	.	.	.	.	.	4r	.	4r	.
2r	.	2r	.	2r	.	4r	.	.	4d\	-mi-	.	4r	.	.	4ff#\	-mi-	.	4dd\	.	4ff#\	.	4r	.	4r	.
.	.	.	.	.	.	4C#/	Do-	.	4e\	-nus	.	4e\	Do-	.	4gg\	-nus	.	4ee\	.	4gg\	.	4cc#\	.	4ee\	.
=6	=6	=6	=6	=6	=6	=6	=6	=6	=6	=6	=6	=6	=6	=6	=6	=6	=6	=6	=6	=6	=6	=6	=6	=6	=6
!	!	!LO:TX:a:t=1:mod=	!	!LO:TX:a:t=1:mod=	!	!	!	!	!	!	!	!	!	!	!LO:SIC:s=(4aa	!	!	!	!	!	!	!	!	!	!
1r	.	1r	.	1r	.	4D\	-mi-	.	(4f#\	De-	.	4f#\	-mi-	.	4aa\	De-	.	4ff#\	.	4aa\	.	4dd\	.	4ff#\	.
!	!	!	!	!	!	!	!	!	!	!	!	!	!	!	!LO:SIC:s=4gg)	!	!	!	!	!	!	!	!	!	!
.	.	.	.	.	.	4E\	-nus	.	4e\)	.	.	4g\	-nus	.	4gg\	.	.	4ee\	.	4gg\	.	4ee\	.	4gg\	.
!	!	!	!	!	!	!LO:SIC:s=(4F#	!	!	!	!	!	!LO:SIC:s=(4a	!	!	!	!	!	!	!	!	!	!	!	!	!
.	.	.	.	.	.	4F#\	De-	.	4d\	-us	.	4a\	De-	.	4ff#\	-us	.	4dd\	.	4ff#\	.	4ff#\	.	4aa\	.
!	!	!	!	!	!	!LO:SIC:s=4E)	!	!	!	!	!	!LO:SIC:s=4g)	!	!	!	!	!	!	!	!	!	!	!	!	!
.	.	.	.	.	.	4E\	.	.	4r	.	.	4g\	.	.	4r	.	.	4r	.	4r	.	4ee\	.	4gg\	.
=7	=7	=7	=7	=7	=7	=7	=7	=7	=7	=7	=7	=7	=7	=7	=7	=7	=7	=7	=7	=7	=7	=7	=7	=7	=7
*2\right	*	*	*	*	*	*	*	*	*	*	*	*	*	*	*	*	*	*	*	*	*	*	*	*	*
*tremolo	*	*tremolo	*	*	*	*	*	*	*	*	*	*	*	*	*	*	*	*	*	*	*	*	*	*	*
!	!	!	!	!	!LO:MO:null:mod=!LO&colon;DY&colon;ed=brack	!	!	!	!	!	!	!	!	!	!	!	!	!	!	!	!	!	!	!	!
!	!	!	!	!	!	!	!	!	!	!	!	!	!	!	!	!	!	!	!	!	!	!	!	!	!
!	!LO:DY:t=pp&colon;	!	!LO:DY:rj	!	!LO:MO:null:mod=p	!	!	!	!	!	!	!LO:TX:a:t=dol&colon;:mod=	!	!	!	!	!	!	!	!	!	!	!	!	!
8D\L	pp	8A/L	p	8f#'/L	.	4D\	-us	.	4r	.	.	4f#\	-us	.	4r	.	.	0r	.	0r	.	4dd\	.	4ff#\	.
8D\	.	8A/	.	8a'/	.	.	.	.	.	.	.	.	.	.	.	.	.	.	.	.	.	.	.	.	.
*	*	*	*	*	*	*2\right	*	*	*	*	*	*2\right	*	*	*2\right	*	*	*	*	*	*	*	*	*	*
!	!	!	!	!	!	!	!	!	!	!	!	!	!	!	!LO:TX:b:t=dol.:mod=	!	!	!	!	!	!	!	!	!	!
8D\	.	8A/	.	8dd'/	.	2D\	San-	.	2A\	San-	.	2f#\	San-	.	2dd\	San-	.	.	.	.	.	4r	.	4r	.
8D\J	.	8A/J	.	8a'/J	.	.	.	.	.	.	.	.	.	.	.	.	.	.	.	.	.	.	.	.	.
8D\L	.	8A/L	.	8f#'/L	.	.	.	.	.	.	.	.	.	.	.	.	.	.	.	.	.	2r	.	2r	.
8D\	.	8A/	.	8a'/	.	.	.	.	.	.	.	.	.	.	.	.	.	.	.	.	.	.	.	.	.
8D\	.	8A/	.	8dd'/	.	4D\	-ctus	.	4A\	-ctus	.	4f#\	-ctus	.	4dd\	-ctus	.	.	.	.	.	.	.	.	.
8D\J	.	8A/J	.	8a'/J	.	.	.	.	.	.	.	.	.	.	.	.	.	.	.	.	.	.	.	.	.
!	!	!	!	!	!	!	!	!	!LO:LB:g=original	!	!	!	!	!	!	!	!	!	!	!	!	!	!	!	!
=8	=8	=8	=8	=8	=8	=8	=8	=8	=8	=8	=8	=8	=8	=8	=8	=8	=8	=8	=8	=8	=8	=8	=8	=8	=8
!	!	!	!	!	!	!	!	!	!	!	!	!	!	!	!LO:TX:b:t=dol.:mod=	!	!	!	!	!	!	!	!	!	!
*	*	*	*	*	*	*	*ij	*	*	*ji	*	*	*ij	*	*	*ij	*	*	*	*	*	*	*	*	*
8GG/L	.	8G/L	.	8G'/L	.	4E\	San-	.	4B\	San-	.	4g\	San-	.	4ee\	San-	.	.	.	.	.	1r	.	1r	.
8GG/	.	8G/	.	8B'/	.	.	.	.	.	.	.	.	.	.	.	.	.	.	.	.	.	.	.	.	.
8GG/	.	8G/	.	8e'/	.	4G\	-ctus	.	4B\	-ctus	.	4g\	-ctus	.	4ee\	-ctus	.	.	.	.	.	.	.	.	.
*	*	*	*	*	*	*	*Xij	*	*	*Xij	*	*	*Xij	*	*	*Xij	*	*	*	*	*	*	*	*	*
8GG/J	.	8G/J	.	8B'/J	.	.	.	.	.	.	.	.	.	.	.	.	.	.	.	.	.	.	.	.	.
8G\L	.	8G/L	.	8G'/L	.	2r	.	.	2r	.	.	2r	.	.	2r	.	.	.	.	.	.	.	.	.	.
8G\	.	8G/	.	8B'/	.	.	.	.	.	.	.	.	.	.	.	.	.	.	.	.	.	.	.	.	.
8G\	.	8G/	.	8e'/	.	.	.	.	.	.	.	.	.	.	.	.	.	.	.	.	.	.	.	.	.
8G\J	.	8G/J	.	8B'/J	.	.	.	.	.	.	.	.	.	.	.	.	.	.	.	.	.	.	.	.	.
!	!	!	!	!	!	!	!	!	!	!	!	!	!	!	!	!	!	!	!	!	!	!LO:LB:g=original	!	!	!
=9	=9	=9	=9	=9	=9	=9	=9	=9	=9	=9	=9	=9	=9	=9	=9	=9	=9	=9	=9	=9	=9	=9	=9	=9	=9
8F#\L	.	8A/L	.	8A/L	.	4D\	Do-	.	4A\	Do-	.	4f#\	Do-	.	4dd\	Do-	.	4r	.	4r	.	4r	.	4r	.
8F#\	.	8A/	.	8d/	.	.	.	.	.	.	.	.	.	.	.	.	.	.	.	.	.	.	.	.	.
8F#\	.	8A/	.	8f#/	.	8D\	-mi-	.	8A\	-mi-	.	8f#\	-mi-	.	8dd\	-mi-	.	8r	.	8r	.	8r	.	8r	.
8F#\	.	8A/J	.	8d/J	.	8D\	-nus	.	8A\	-nus	.	8f#\	-nus	.	8dd\	-nus	.	8f#/L	.	8dd\L	.	8ff#\L	.	8aa\L	.
8F#\	.	8A/L	.	8A/L	.	4D\	De-	.	4A\	De-	.	4f#\	De-	.	4dd\	De-	.	8f#/J	.	8dd\J	.	8ff#\J	.	8aa\J	.
8F#\J	.	8A/	.	8d/	.	.	.	.	.	.	.	.	.	.	.	.	.	8r	.	8r	.	8r	.	8r	.
8A\L	.	8A/	.	8e/	.	4A\	-us	.	4G\	-us	.	4e\	-us	.	4cc#\	-us	.	4r	.	4r	.	4r	.	4r	.
8A\J	.	8A/J	.	8c#/J	.	.	.	.	.	.	.	.	.	.	.	.	.	.	.	.	.	.	.	.	.
*Xtremolo	*	*Xtremolo	*	*	*	*	*	*	*	*	*	*	*	*	*	*	*	*	*	*	*	*	*	*	*
!	!	!	!	!	!	!	!	!	!	!	!	!LO:LB:g=original	!	!	!LO:LB:g=original	!	!	!	!	!	!	!	!	!LO:LB:g=original	!
=10	=10	=10	=10	=10	=10	=10	=10	=10	=10	=10	=10	=10	=10	=10	=10	=10	=10	=10	=10	=10	=10	=10	=10	=10	=10
!	!	!LO:TX:a:t=P:problem=mixed beam	!	!	!	!	!	!	!	!	!	!	!	!	!	!	!	!	!	!	!	!	!	!	!
8d\L	.	8F#/L	.	8f#/L	.	2.D\	Sa-	.	2.d\	Sa-	.	2.f#\	Sa-	.	2.a\	Sa-	.	4r	.	4r	.	4r	.	4r	.
8F#\	.	8d\	.	8A/	.	.	.	.	.	.	.	.	.	.	.	.	.	.	.	.	.	.	.	.	.
8F#\	.	8d\	.	8d/	.	.	.	.	.	.	.	.	.	.	.	.	.	8r	.	8r	.	8r	.	8r	.
8F#\J	.	8d\J	.	8f#/J	.	.	.	.	.	.	.	.	.	.	.	.	.	8f#/L	.	8dd\L	.	8ff#\L	.	8aa\L	.
!LO:TX:a:t=P:problem=mixed beam	!	!LO:TX:a:t=P:problem=mixed beam	!	!	!	!	!	!	!	!	!	!	!	!	!	!	!	!	!	!	!	!	!	!	!
8F#\L	.	8d\L	.	8g/L	.	.	.	.	.	.	.	.	.	.	.	.	.	8f#/J	.	8dd\J	.	8ff#\J	.	8aa\J	.
8G\	.	8g\	.	8A/	.	.	.	.	.	.	.	.	.	.	.	.	.	8r	.	8r	.	8r	.	8r	.
8A\	.	8a\	.	8c#/	.	4E\	-ba-	.	4c#\	-ba-	.	4g\	-ba-	.	4a\	-ba-	.	4r	.	4r	.	4r	.	4r	.
8AA/J	.	8A/J	.	8e/J	.	.	.	.	.	.	.	.	.	.	.	.	.	.	.	.	.	.	.	.	.
!	!	!	!	!	!	!	!	!	!	!	!	!	!	!	!	!	!	!LO:LB:g=original	!	!	!	!	!	!	!
=11	=11	=11	=11	=11	=11	=11	=11	=11	=11	=11	=11	=11	=11	=11	=11	=11	=11	=11	=11	=11	=11	=11	=11	=11	=11
*tremolo	*	*	*	*tremolo	*	*	*	*	*	*	*	*	*	*	*	*	*	*	*	*	*	*	*	*	*
!	!LO:MO:null:mod=!LO&colon;DY&colon;ed=brack	!	!LO:MO:null:mod=!LO&colon;DY&colon;ed=brack	!	!	!	!	!LO:MO:null:mod=!LO&colon;DY&colon;ed=brack	!	!	!LO:MO:null:mod=!LO&colon;DY&colon;ed=brack	!	!	!	!	!	!	!	!	!	!	!	!	!	!
!	!	!	!	!	!	!	!	!	!	!	!	!	!	!	!	!	!	!	!	!	!	!	!	!	!
!	!LO:MO:null:mod=fp	!	!LO:MO:null:mod=fp	!	!LO:DY:rj	!	!	!LO:MO:null:mod=fp	!	!	!LO:MO:null:mod=fp	!	!	!LO:DY:a	!	!	!LO:DY:a	!	!	!	!	!	!	!	!
8D\L	.	8d/ 8D/	.	8f#/L 8A/	fp	4D\	-oth	.	4d\	-oth	.	4f#\	-oth	fp	4a\	-oth	fp	8r	.	8r	.	8r	.	8r	.
!	!	!	!	!	!	!	!	!	!	!	!	!	!	!	!	!	!	!	!LO:DY:t=po	!	!LO:DY:t=po	!	!	!	!
8D\	.	4d/ 4D/	.	8f#/ 8A/	.	.	.	.	.	.	.	.	.	.	.	.	.	8f#/	p	8dd\	p	8dd\	fp	8ff#\	fp
8D\	.	.	.	8f#/ 8A/	.	4D\	San-	.	4D/	San-	.	4d\	San-	.	4d/	San-	.	4f#/	.	4dd\	.	4dd\	.	8r	.
8D\J	.	4d/ 4D/	.	8f#/ 8A/	.	.	.	.	.	.	.	.	.	.	.	.	.	.	.	.	.	.	.	8ff#\	.
8D\L	.	.	.	8f#/ 8A/	.	4F#\	.	.	4F#/	.	.	4f#\	.	.	4f#/	.	.	8r	.	8r	.	8r	.	8r	.
8D\	.	4d/ 4D/	.	8f#/ 8A/	.	.	.	.	.	.	.	.	.	.	.	.	.	8f#/	.	8dd\	.	8dd\	.	8ff#\	.
8D\	.	.	.	8f#/ 8A/	.	4A\	-ctus	.	4A/	-ctus	.	4a\	-ctus	.	4a\	-ctus	.	4f#/	.	4dd\	.	4dd\	.	4ff#\	.
8D\J	.	8d/ 8D/	.	8f#/J 8A/	.	.	.	.	.	.	.	.	.	.	.	.	.	.	.	.	.	.	.	.	.
!	!	!	!	!LO:LB:g=original	!	!	!	!	!	!	!	!	!	!	!	!	!	!	!	!	!	!	!	!	!
=12	=12	=12	=12	=12	=12	=12	=12	=12	=12	=12	=12	=12	=12	=12	=12	=12	=12	=12	=12	=12	=12	=12	=12	=12	=12
*	*	*rep	*	*	*	*	*	*	*	*	*	*	*	*	*	*	*	*	*	*	*	*	*	*	*
!	!LO:MO:null:mod=!LO&colon;DY&colon;ed=brack	!	!LO:MO:null:mod=!LO&colon;DY&colon;ed=brack	!	!	!	!	!	!	!	!	!	!	!	!	!	!	!	!	!	!	!	!	!	!
!	!	!	!	!	!LO:DY:rj	!	!	!	!	!	!	!	!	!	!	!	!	!	!	!	!	!	!	!	!
!	!LO:MO:null:mod=fp	!	!LO:MO:null:mod=fp	!	!	!	!	!	!	!	!	!	!	!	!	!	!	!	!	!	!	!	!	!	!
8d\L	.	8d/ 8D/	.	8A/L	fp	4d\	Do-	.	4d\	Do-	.	4dd\	Do-	.	4dd\	Do-	.	8r	.	8r	.	8r	.	8r	.
!	!	!	!	!	!	!	!	!	!	!	!	!	!	!	!	!	!	!	!LO:DY:t=po	!	!	!	!	!	!
!	!	!	!	!	!	!	!	!	!	!	!	!	!	!	!	!	!	!	!LO:MO:mod=!null:null	!	!	!	!	!	!
8d\	.	4d/ 4D/	.	8A/	.	.	.	.	.	.	.	.	.	.	.	.	.	8f#/	p	8dd\	.	8dd\	fp	8ff#\	fp
!	!	!	!	!	!	!	!	!LO:MO:null:mod=!LO&colon;DY&colon;ed=brack	!	!	!LO:MO:null:mod=!LO&colon;DY&colon;ed=brack	!	!	!	!	!	!	!	!	!	!	!	!	!	!
!	!	!	!	!	!	!	!	!	!	!	!	!	!	!	!	!	!	!	!	!	!	!	!	!	!
!	!	!	!	!	!	!	!	!LO:MO:null:mod=fp	!	!	!LO:MO:null:mod=fp	!	!	!LO:DY:a	!	!	!LO:DY:a	!	!	!	!	!	!	!	!
8d\	.	.	.	8A/	.	4A\	.	.	4A\	.	.	4a\	.	fp	4a\	.	fp	4f#/	.	4dd\	.	4dd\	.	4ff#\	.
8d\J	.	4d/ 4D/	.	8A/	.	.	.	.	.	.	.	.	.	.	.	.	.	.	.	.	.	.	.	.	.
8D\L	.	.	.	8A/	.	4F#\	-mi-	.	4F#/	-mi-	.	4f#\	-mi-	.	4f#/	-mi-	.	8r	.	8r	.	8r	.	8r	.
8D\	.	4d/ 4D/	.	8A/	.	.	.	.	.	.	.	.	.	.	.	.	.	8f#/	.	8dd\	.	8dd\	.	8ff#\	.
8D\	.	.	.	8A/	.	4D\	-nus	.	4A\	-nus	.	4d\	-nus	.	4a\	-nus	.	4f#/	.	4dd\	.	4dd\	.	8r	.
8D\J	.	8d/ 8D/	.	8A/J	.	.	.	.	.	.	.	.	.	.	.	.	.	.	.	.	.	.	.	8ff#\	.
*	*	*Xrep	*	*	*	*	*	*	*	*	*	*	*	*	*	*	*	*	*	*	*	*	*	*	*
!	!	!LO:LB:g=original	!	!	!	!	!	!	!	!	!	!	!	!	!	!	!	!	!	!	!	!	!	!	!
=13	=13	=13	=13	=13	=13	=13	=13	=13	=13	=13	=13	=13	=13	=13	=13	=13	=13	=13	=13	=13	=13	=13	=13	=13	=13
!	!LO:MO:null:mod=!LO&colon;DY&colon;ed=brack	!	!LO:MO:null:mod=!LO&colon;DY&colon;ed=brack	!	!	!	!	!LO:MO:null:mod=!LO&colon;DY&colon;ed=brack	!	!	!LO:MO:null:mod=!LO&colon;DY&colon;ed=brack	!	!	!	!	!	!	!	!	!	!	!	!	!	!
!	!	!	!	!	!LO:DY:rj	!	!	!	!	!	!	!	!	!LO:DY:a	!	!	!LO:DY:a	!	!	!	!	!	!	!	!
!	!LO:MO:null:mod=fp	!	!LO:MO:null:mod=fp	!	!	!	!	!LO:MO:null:mod=fp	!	!	!LO:MO:null:mod=fp	!	!	!	!	!	!	!	!	!	!	!	!	!	!
8G\L	.	8G/	.	8e/L 8B/	fp	2GG/	De-	.	2G/	De-	.	2e\	De-	fp	2b\	De-	fp	8r	.	8r	.	8r	.	8r	.
!	!	!	!	!	!	!	!	!	!	!	!	!	!	!	!	!	!	!	!LO:DY:t=po	!	!LO:DY:t=p.	!	!	!	!
!	!	!	!	!	!	!	!	!	!	!	!	!	!	!	!	!	!	!	!LO:MO:mod=!null:null	!	!LO:MO:mod=!null:null	!	!	!	!
8G\	.	4G/	.	8e/ 8B/	.	.	.	.	.	.	.	.	.	.	.	.	.	8ee\	p	8gg\	p	8b\	fp	8gg\	fp
8G\	.	.	.	8e/ 8B/	.	.	.	.	.	.	.	.	.	.	.	.	.	4ee\	.	4gg\	.	4b\	.	4gg\	.
8G\J	.	4G/	.	8e/ 8B/	.	.	.	.	.	.	.	.	.	.	.	.	.	.	.	.	.	.	.	.	.
8GG/L	.	.	.	8e/ 8B/	.	2GG/	-us	.	2G/	-us	.	2e\	-us	.	2b\	-us	.	8r	.	8r	.	8r	.	8r	.
8GG/	.	4G/	.	8e/ 8B/	.	.	.	.	.	.	.	.	.	.	.	.	.	8ee\	.	8gg\	.	8b\	.	8gg\	.
8GG/	.	.	.	8e/ 8B/	.	.	.	.	.	.	.	.	.	.	.	.	.	4ee\	.	4gg\	.	4b\	.	4gg\	.
8GG/J	.	8G/	.	8e/J 8B/	.	.	.	.	.	.	.	.	.	.	.	.	.	.	.	.	.	.	.	.	.
!	!	!	!	!	!	!	!	!	!	!	!	!	!	!	!	!	!	!	!	!LO:LB:g=original	!	!	!	!	!
=14	=14	=14	=14	=14	=14	=14	=14	=14	=14	=14	=14	=14	=14	=14	=14	=14	=14	=14	=14	=14	=14	=14	=14	=14	=14
!	!LO:MO:null:mod=!LO&colon;DY&colon;ed=brack	!	!LO:MO:null:mod=!LO&colon;DY&colon;ed=brack	!	!	!	!	!LO:MO:null:mod=!LO&colon;DY&colon;ed=brack	!	!	!LO:MO:null:mod=!LO&colon;DY&colon;ed=brack	!	!	!	!	!	!	!	!	!	!	!	!	!	!
!	!	!	!	!	!	!	!	!	!	!	!	!	!	!	!	!	!	!	!	!	!	!	!	!	!
!	!LO:MO:null:mod=fp	!	!LO:MO:null:mod=fp	!	!LO:DY:rj	!	!	!LO:MO:null:mod=fp	!	!	!LO:MO:null:mod=fp	!	!	!LO:DY:b:rj	!	!	!LO:DY:a	!	!	!	!	!	!	!	!
8AA/L	.	8c#\	.	8g/L 8A/	fp	2.AA/	Sa-	.	2.e\	Sa-	.	2.g\	Sa-	fp	2.cc#\	Sa-	fp	8r	.	8r	.	8r	.	8r	.
!	!	!	!	!	!	!	!	!	!	!	!	!	!	!	!	!	!	!	!	!	!LO:DY:t=p.	!	!	!	!
!	!	!	!	!	!	!	!	!	!	!	!	!	!	!	!	!	!	!	!	!	!LO:MO:mod=!null:null	!	!	!	!
8AA/	.	4c#\	.	8g/ 8A/	.	.	.	.	.	.	.	.	.	.	.	.	.	8a/	.	8ee\	p	8cc#\	.	8gg\	.
!	!	!	!	!	!	!	!	!	!	!	!	!	!	!	!	!	!	!	!	!	!	!	!LO:MO:null:mod=!LO&colon;DY&colon;ed=brack	!	!
!	!	!	!	!	!	!	!	!	!	!	!	!	!	!	!	!	!	!	!	!	!	!	!	!	!
!	!	!	!	!	!	!	!	!	!	!	!	!	!	!	!	!	!	!	!	!	!	!	!LO:MO:null:mod=fp	!	!
8AA/	.	.	.	8g/ 8A/	.	.	.	.	.	.	.	.	.	.	.	.	.	4a/	.	4ee\	.	4cc#\	.	4gg\	fp
8AA/J	.	4c#\	.	8g/ 8A/	.	.	.	.	.	.	.	.	.	.	.	.	.	.	.	.	.	.	.	.	.
8A\L	.	.	.	8g/ 8A/	.	.	.	.	.	.	.	.	.	.	.	.	.	8r	.	8r	.	8r	.	8r	.
8A\	.	4c#\	.	8g/ 8A/	.	.	.	.	.	.	.	.	.	.	.	.	.	8a/	.	8ee\	.	8cc#\	.	8gg\	.
8A\	.	.	.	8g/ 8A/	.	4AA/	-ba-	.	4e\	-ba-	.	4g\	-ba-	.	4cc#\	-ba-	.	4a/	.	4ee\	.	4cc#\	.	4gg\	.
8A\J	.	8c#\	.	8g/J 8A/	.	.	.	.	.	.	.	.	.	.	.	.	.	.	.	.	.	.	.	.	.
*Xtremolo	*	*	*	*Xtremolo	*	*	*	*	*	*	*	*	*	*	*	*	*	*	*	*	*	*	*	*	*
=15||	=15||	=15||	=15||	=15||	=15||	=15||	=15||	=15||	=15||	=15||	=15||	=15||	=15||	=15||	=15	=15	=15||	=15||	=15||	=15||	=15||	=15||	=15||	=15||	=15||
!	!LO:MO:null:mod=!LO&colon;DY&colon;ed=brack	!	!LO:MO:null:mod=!LO&colon;DY&colon;ed=brack	!	!LO:MO:null:mod=!LO&colon;DY&colon;ed=brack	!	!	!LO:MO:null:mod=!LO&colon;DY&colon;ed=brack	!	!	!LO:MO:null:mod=!LO&colon;DY&colon;ed=brack	!	!	!LO:MO:null:mod=!LO&colon;DY&colon;ed=brack	!	!	!LO:MO:null:mod=!LO&colon;DY&colon;ed=brack	!	!LO:MO:null:mod=!LO&colon;DY&colon;ed=brack	!	!LO:MO:null:mod=!LO&colon;DY&colon;ed=brack	!	!	!	!
!	!	!	!	!	!	!	!	!	!	!	!	!	!	!	!	!	!	!	!	!	!	!	!	!	!
!LO:TX:a:t=allo:mod=	!LO:MO:null:mod=f	!LO:TX:a:t=P:problem=mixed beam	!LO:MO:null:mod=f	!LO:TX:a:t=allo:mod=	!LO:MO:null:mod=f	!LO:TX:a:t=allo:mod=	!	!LO:MO:null:mod=f	!LO:TX:a:t=allo:mod=	!	!LO:MO:null:mod=f	!LO:TX:a:t=allo:mod=	!	!LO:MO:null:mod=f	!	!	!LO:MO:null:mod=f	!LO:TX:a:t=allo:mod=	!LO:MO:null:mod=f	!LO:TX:a:t=allo:mod=	!LO:MO:null:mod=f	!LO:TX:a:t=allo:mod=	!LO:MO:mod=f	!LO:TX:a:t=allo:mod=	!
4D\	.	8d\L	.	8f#/L 8A/	.	8D\	-oth	.	4A\	-oth	.	4f#\	-oth	.	4dd\	-oth	.	4f#/	.	4dd\	.	4dd\	fp	4ff#\	f
.	.	8D/	.	8d/	.	8D\	Ple-	.	.	.	.	.	.	.	.	.	.	.	.	.	.	.	.	.	.
!	!	!	!	!	!	!	!	!	!	!	!	!	!	!	!LO:TX:a:t=allo:mod=	!	!	!	!	!	!	!	!	!	!
4r	.	8E/	.	8c#/	.	8E\	-ni	.	4r	.	.	4r	.	.	4r	.	.	4r	.	4r	.	4r	.	4r	.
.	.	8F#/J	.	8d/J	.	8F#\	sunt	.	.	.	.	.	.	.	.	.	.	.	.	.	.	.	.	.	.
!	!	!	!	!	!	!LO:SIC:s=(8GL	!	!	!	!	!	!	!	!	!	!	!	!	!	!	!	!	!	!	!
2r	.	8G/L	.	8e/L	.	8G\	cae-	.	2r	.	.	2r	.	.	2r	.	.	2r	.	2r	.	2r	.	2r	.
!	!	!	!	!	!	!LO:SIC:s=8AJ)	!LO:MO:null:mod=.	!	!	!	!	!	!	!	!	!	!	!	!	!	!	!	!	!	!
.	.	8A/	.	8f#/	.	8A\	-li	.	.	.	.	.	.	.	.	.	.	.	.	.	.	.	.	.	.
!	!	!	!	!	!	!LO:LB:g=original	!LO:MO:mod=-li	!	!	!	!	!	!	!	!	!	!	!	!	!	!	!	!	!	!
.	.	8B/	.	8g/	.	8B\	et	.	.	.	.	.	.	.	.	.	.	.	.	.	.	.	.	.	.
!	!	!	!	!	!	!	!LO:MO:mod=et	!	!	!	!	!	!	!	!	!	!	!	!	!	!	!	!	!	!
.	.	8c#/J	.	8a/J	.	8c#\	er-	.	.	.	.	.	.	.	.	.	.	.	.	.	.	.	.	.	.
!LO:LB:g=original	!	!	!	!	!	!	!	!	!	!	!	!	!	!	!	!	!	!	!	!	!	!	!	!	!
=16	=16	=16	=16	=16	=16	=16	=16	=16	=16	=16	=16	=16	=16	=16	=16	=16	=16	=16	=16	=16	=16	=16	=16	=16	=16
!	!	!	!	!	!	!LO:TX:a:t=P:problem=mixed beam	!	!	!	!	!	!	!	!	!	!	!	!	!	!	!	!	!	!	!
!	!	!LO:TX:a:t=P:problem=mixed beam	!	!	!	!LO:SIC:s=8d	!LO:MO:mod=ter-	!	!	!	!	!	!	!	!	!	!	!	!	!	!	!	!	!	!
4d\	.	8d\L	.	8f#/L	.	8d\L	-ra	.	8r	.	.	0r	.	.	1r	.	.	4f#/	.	4dd\	.	4dd\	.	4ff#\	.
!	!	!	!	!	!	!LO:SIC:s=8D	!LO:MO:null:mod=-ra	!	!	!	!	!	!	!	!	!	!	!	!	!	!	!	!	!	!
.	.	8F#/	.	8d/	.	8D/J	.	.	8F#/L	Glo-	.	.	.	.	.	.	.	.	.	.	.	.	.	.	.
4r	.	8G/	.	8e/	.	4r	.	.	8G/	.	.	.	.	.	.	.	.	4r	.	4r	.	4r	.	4r	.
.	.	8A/J	.	8f#/J	.	.	.	.	8A/J	.	.	.	.	.	.	.	.	.	.	.	.	.	.	.	.
!	!	!	!	!	!	!	!	!	!LO:LB:g=original	!LO:MO:null:mod=-ri-	!	!	!	!	!	!	!	!	!	!	!	!	!	!	!
2r	.	8B\L	.	8g/L	.	2r	.	.	8B\L	.	.	.	.	.	.	.	.	2r	.	2r	.	2r	.	2r	.
.	.	8c#\	.	8a/	.	.	.	.	8c#\	.	.	.	.	.	.	.	.	.	.	.	.	.	.	.	.
!	!	!	!	!	!	!	!	!	!	!LO:MO:null:mod=.	!	!	!	!	!	!	!	!	!	!	!	!	!	!	!
.	.	8d\	.	8b/	.	.	.	.	8d\	-ri-	.	.	.	.	.	.	.	.	.	.	.	.	.	.	.
.	.	8e\J	.	8cc#/J	.	.	.	.	8e\J	.	.	.	.	.	.	.	.	.	.	.	.	.	.	.	.
!	!	!	!	!	!	!	!	!	!	!	!	!	!	!	!	!	!	!	!	!	!	!LO:LB:g=original	!	!	!
=17	=17	=17	=17	=17	=17	=17	=17	=17	=17	=17	=17	=17	=17	=17	=17	=17	=17	=17	=17	=17	=17	=17	=17	=17	=17
!	!	!LO:TX:a:t=P:problem=mixed beam	!	!LO:TX:a:t=P:problem=mixed beam	!	!	!	!	!	!	!	!	!	!	!	!	!	!	!	!	!	!	!	!	!
4D\	.	8f#\L	.	8dd\L	.	1r	.	.	4f#\	-a	.	.	.	.	8r	.	.	4f#/	.	4dd\	.	4dd\	.	4ff#\	.
.	.	8A\	.	8f#/	.	.	.	.	.	.	.	.	.	.	8a\L	Glo-	.	.	.	.	.	.	.	.	.
4r	.	8B\	.	8g/	.	.	.	.	4r	.	.	.	.	.	8b\	.	.	4r	.	4r	.	4r	.	4r	.
!	!	!	!	!	!	!	!	!	!	!	!	!	!	!	!LO:SIC:s=8cc#J	!	!	!	!	!	!	!	!	!	!
.	.	8c#\J	.	8a/J	.	.	.	.	.	.	.	.	.	.	8cc#\	.	.	.	.	.	.	.	.	.	.
!	!	!	!	!	!	!	!	!	!	!	!	!	!	!	!LO:SIC:s=8ddL	!LO:MO:null:mod=-ri-	!	!	!	!	!	!	!	!	!
2r	.	8d\L	.	8b\L	.	.	.	.	2r	.	.	.	.	.	8dd\	.	.	2r	.	2r	.	2r	.	2r	.
!	!	!	!	!	!	!	!	!	!	!	!	!	!	!	!LO:SIC:s=8eeJ	!	!	!	!	!	!	!	!	!	!
.	.	8e\	.	8cc#\	.	.	.	.	.	.	.	.	.	.	8ee\	.	.	.	.	.	.	.	.	.	.
!	!	!	!	!	!	!	!	!	!	!	!	!	!	!	!LO:SIC:s=8ff#L	!LO:MO:mod=-a	!	!	!	!	!	!	!	!	!
.	.	8f#\	.	8dd\	.	.	.	.	.	.	.	.	.	.	8ff#\	-ria	.	.	.	.	.	.	.	.	.
.	.	8g\J	.	8ee\J	.	.	.	.	.	.	.	.	.	.	8gg\J	.	.	.	.	.	.	.	.	.	.
=18	=18	=18	=18	=18	=18	=18	=18	=18	=18	=18	=18	=18	=18	=18	=18	=18	=18	=18	=18	=18	=18	=18	=18	=18	=18
*	*	*2\right	*	*	*	*	*	*	*	*	*	*	*	*	*	*	*	*	*	*	*	*	*	*2\right	*
*tremolo	*	*tremolo	*	*tremolo	*	*	*	*	*	*	*	*	*	*	*	*	*	*	*	*	*	*	*	*	*
!	!LO:DY:t=for	!	!	!	!	!	!	!	!	!	!	!	!	!LO:DY:a:t=for	!	!	!	!	!LO:DY:t=for	!	!LO:DY:t=f.	!	!	!	!
!	!LO:MO:null:mod=.	!	!	!	!	!	!	!	!	!	!	!	!	!LO:MO:null:mod=.	!	!	!	!	!	!	!	!	!	!	!
8A\L	f	16a\LL	.	16ff#\LL	.	2A\	O-	.	2D/	tu-	.	2d\	O-	f	2aa\	tu-	.	2a/	f	2aa\	f	2a/	>	2aa\	>
.	.	16a\	.	16ff#\	.	.	.	.	.	.	.	.	.	.	.	.	.	.	.	.	.	.	.	.	.
8A\	.	16a\	.	16ff#\	.	.	.	.	.	.	.	.	.	.	.	.	.	.	.	.	.	.	.	.	.
.	.	16a\	.	16ff#\JJ	.	.	.	.	.	.	.	.	.	.	.	.	.	.	.	.	.	.	.	.	.
8A\	.	16a\	.	16aa\LL	.	.	.	.	.	.	.	.	.	.	.	.	.	.	.	.	.	.	.	.	.
.	.	16a\	.	16aa\	.	.	.	.	.	.	.	.	.	.	.	.	.	.	.	.	.	.	.	.	.
8A\J	.	16a\	.	16aa\	.	.	.	.	.	.	.	.	.	.	.	.	.	.	.	.	.	.	.	.	.
.	.	16a\JJ	.	16aa\JJ	.	.	.	.	.	.	.	.	.	.	.	.	.	.	.	.	.	.	.	.	.
*Xtremolo	*	*	*	*	*	*	*	*	*	*	*	*	*	*	*	*	*	*	*	*	*	*	*	*	*
8F#\L	.	16f#\LL	.	16ff#\LL	.	4F#\	-san-	.	4F#/	.	.	4f#\	-san-	.	(4ff#\	.	.	4f#/	.	4ff#\	.	4f#/	.	4ff#\	.
.	.	16f#\	.	16ff#\	.	.	.	.	.	.	.	.	.	.	.	.	.	.	.	.	.	.	.	.	.
8F#\	.	16f#\	.	16ff#\	.	.	.	.	.	.	.	.	.	.	.	.	.	.	.	.	.	.	.	.	.
.	.	16f#\JJ	.	16ff#\JJ	.	.	.	.	.	.	.	.	.	.	.	.	.	.	.	.	.	.	.	.	.
8D\	.	16d\LL	.	16dd\LL	.	4D\	.	.	4A/	.	.	4a\	.	.	4dd\)	.	.	4d/	.	4dd\	.	4d/	]	4dd\	]]
.	.	16d\	.	16dd\	.	.	.	.	.	.	.	.	.	.	.	.	.	.	.	.	.	.	.	.	.
8D\J	.	16d\	.	16dd\	.	.	.	.	.	.	.	.	.	.	.	.	.	.	.	.	.	.	.	.	.
.	.	16d\JJ	.	16dd\JJ	.	.	.	.	.	.	.	.	.	.	.	.	.	.	.	.	.	.	.	.	.
!	!	!	!	!	!	!	!	!	!	!	!	!	!	!	!LO:LB:g=original	!	!	!	!	!	!	!	!	!LO:LB:g=original	!
=19	=19	=19	=19	=19	=19	=19	=19	=19	=19	=19	=19	=19	=19	=19	=19	=19	=19	=19	=19	=19	=19	=19	=19	=19	=19
*tremolo	*	*	*	*	*	*	*	*	*	*	*	*	*	*	*	*	*	*	*	*	*	*	*	*	*
8AA/L	.	16A/LL	.	16a/LL	.	4AA/	-na	.	4A/	-a	.	4a\	-na	.	4a\	-a	.	2A/	.	2a/	.	2a/	.	4a/	.
.	.	16A/	.	16a/	.	.	.	.	.	.	.	.	.	.	.	.	.	.	.	.	.	.	.	.	.
8AA/	.	16A/	.	16a/	.	.	.	.	.	.	.	.	.	.	.	.	.	.	.	.	.	.	.	.	.
.	.	16A/	.	16a/	.	.	.	.	.	.	.	.	.	.	.	.	.	.	.	.	.	.	.	.	.
8AA/	.	16A/	.	16a/	.	4r	.	.	4r	.	.	4r	.	.	4r	.	.	.	.	.	.	.	.	4a/	.
.	.	16A/	.	16a/	.	.	.	.	.	.	.	.	.	.	.	.	.	.	.	.	.	.	.	.	.
8AA/J	.	16A/	.	16a/	.	.	.	.	.	.	.	.	.	.	.	.	.	.	.	.	.	.	.	.	.
.	.	16A/JJ	.	16a/JJ	.	.	.	.	.	.	.	.	.	.	.	.	.	.	.	.	.	.	.	.	.
*Xtremolo	*	*	*	*	*	*	*	*	*	*	*	*	*	*	*	*	*	*	*	*	*	*	*	*	*
8F#\L	.	16F#/LL	.	16f#/LL	.	2r	.	.	2r	.	.	2r	.	.	2r	.	.	4f#/	.	4f#/	.	4f#/	.	4f#/	.
.	.	16F#/	.	16f#/	.	.	.	.	.	.	.	.	.	.	.	.	.	.	.	.	.	.	.	.	.
8F#\	.	16F#/	.	16f#/	.	.	.	.	.	.	.	.	.	.	.	.	.	.	.	.	.	.	.	.	.
.	.	16F#/JJ	.	16f#/JJ	.	.	.	.	.	.	.	.	.	.	.	.	.	.	.	.	.	.	.	.	.
8D\	.	16D/LL	.	16d/LL	.	.	.	.	.	.	.	.	.	.	.	.	.	4d/	.	4d/	.	4d/	.	4d/	.
.	.	16D/	.	16d/	.	.	.	.	.	.	.	.	.	.	.	.	.	.	.	.	.	.	.	.	.
8D\J	.	16D/	.	16d/	.	.	.	.	.	.	.	.	.	.	.	.	.	.	.	.	.	.	.	.	.
.	.	16D/JJ	.	16d/JJ	.	.	.	.	.	.	.	.	.	.	.	.	.	.	.	.	.	.	.	.	.
!	!	!LO:LB:g=original	!	!	!	!	!	!	!	!	!	!	!	!	!	!	!	!	!	!	!	!	!	!	!
=20	=20	=20	=20	=20	=20	=20	=20	=20	=20	=20	=20	=20	=20	=20	=20	=20	=20	=20	=20	=20	=20	=20	=20	=20	=20
4AA/	.	16A/LL 16G/	.	16A/LL	.	4A\	O-	.	4e\	O-	.	4g\	O-	.	4cc#\	O-	.	4a/	.	4ee\	.	4cc#\	.	4gg\	.
.	.	16A/ 16G/	.	16A/	.	.	.	.	.	.	.	.	.	.	.	.	.	.	.	.	.	.	.	.	.
.	.	16A/ 16G/	.	16A/	.	.	.	.	.	.	.	.	.	.	.	.	.	.	.	.	.	.	.	.	.
.	.	16A/ 16G/	.	16A/JJ	.	.	.	.	.	.	.	.	.	.	.	.	.	.	.	.	.	.	.	.	.
*	*	*	*	*	*	*	*	*	*	*	*	*	*	*	*	*	*	*	*	*	*	*2\right	*	*	*
8BB/L	.	16A/ 16G/	.	16B/LL	.	8A\	-san-	.	8e\	-san-	.	8g\	-san-	.	8cc#\	-san-	.	2a/	.	2ee\	.	2cc#\	.	2gg\	.
.	.	16A/ 16G/	.	16B/	.	.	.	.	.	.	.	.	.	.	.	.	.	.	.	.	.	.	.	.	.
8C#/J	.	16A/ 16G/	.	16c#/	.	8A\	-na	.	8e\	-na	.	8g\	-na	.	8cc#\	-na	.	.	.	.	.	.	.	.	.
.	.	16A/JJ 16G/	.	16c#/JJ	.	.	.	.	.	.	.	.	.	.	.	.	.	.	.	.	.	.	.	.	.
8D\L	.	16A/LL 16G/	.	16d/LL	.	4A\	in	.	4e\	in	.	4g\	in	.	4cc#\	in	.	.	.	.	.	.	.	.	.
.	.	16A/ 16G/	.	16d/	.	.	.	.	.	.	.	.	.	.	.	.	.	.	.	.	.	.	.	.	.
8E\	.	16A/ 16G/	.	16e/	.	.	.	.	.	.	.	.	.	.	.	.	.	.	.	.	.	.	.	.	.
.	.	16A/ 16G/	.	16e/	.	.	.	.	.	.	.	.	.	.	.	.	.	.	.	.	.	.	.	.	.
8F#\	.	16A/ 16G/	.	16f#/	.	4A\	ex-	.	4e\	ex-	.	4g\	ex-	.	4cc#\	ex-	.	4a/	.	4ee\	.	4cc#\	.	4gg\	.
.	.	16A/ 16G/	.	16f#/	.	.	.	.	.	.	.	.	.	.	.	.	.	.	.	.	.	.	.	.	.
8G\J	.	16A/ 16G/	.	16g/	.	.	.	.	.	.	.	.	.	.	.	.	.	.	.	.	.	.	.	.	.
.	.	16A/JJ 16G/	.	16g/JJ	.	.	.	.	.	.	.	.	.	.	.	.	.	.	.	.	.	.	.	.	.
!	!	!	!	!LO:LB:g=original	!	!	!	!	!	!	!	!	!	!	!	!	!	!	!	!	!	!	!	!	!
=21	=21	=21	=21	=21	=21	=21	=21	=21	=21	=21	=21	=21	=21	=21	=21	=21	=21	=21	=21	=21	=21	=21	=21	=21	=21
*	*	*rep	*	*	*	*	*	*	*	*	*	*	*	*	*	*	*	*	*	*	*	*	*	*	*
8A\L	.	16A/LL 16G/	.	16a/LL	.	2A\	-cel-	.	2e\	-cel-	.	2g\	-cel-	.	2cc#\	-cel-	.	4a/	.	4ee\	.	4cc#\	.	4gg\	.
.	.	16A/ 16G/	.	16a/	.	.	.	.	.	.	.	.	.	.	.	.	.	.	.	.	.	.	.	.	.
8B\	.	16A/ 16G/	.	16g#X/	.	.	.	.	.	.	.	.	.	.	.	.	.	.	.	.	.	.	.	.	.
.	.	16A/ 16G/	.	16g#/	.	.	.	.	.	.	.	.	.	.	.	.	.	.	.	.	.	.	.	.	.
8c#\	.	16A/ 16G/	.	16gn/	.	.	.	.	.	.	.	.	.	.	.	.	.	2a/	.	2ee\	.	2cc#\	.	2gg\	.
.	.	16A/ 16G/	.	16g/	.	.	.	.	.	.	.	.	.	.	.	.	.	.	.	.	.	.	.	.	.
8d\J	.	16A/ 16G/	.	16f#/	.	.	.	.	.	.	.	.	.	.	.	.	.	.	.	.	.	.	.	.	.
.	.	16A/JJ 16G/	.	16f#/JJ	.	.	.	.	.	.	.	.	.	.	.	.	.	.	.	.	.	.	.	.	.
8e\L	.	16A/LL 16G/	.	16e/LL	.	2A\	-sis	.	2e\	-sis	.	2g\	-sis	.	2cc#\	-sis	.	.	.	.	.	.	.	.	.
.	.	16A/ 16G/	.	16e/	.	.	.	.	.	.	.	.	.	.	.	.	.	.	.	.	.	.	.	.	.
8F#\	.	16A/ 16G/	.	16d/	.	.	.	.	.	.	.	.	.	.	.	.	.	.	.	.	.	.	.	.	.
.	.	16A/ 16G/	.	16d/	.	.	.	.	.	.	.	.	.	.	.	.	.	.	.	.	.	.	.	.	.
8G\	.	16A/ 16G/	.	16c#/	.	.	.	.	.	.	.	.	.	.	.	.	.	4a/	.	4ee\	.	4cc#\	.	8gg\L	.
.	.	16A/ 16G/	.	16c#/	.	.	.	.	.	.	.	.	.	.	.	.	.	.	.	.	.	.	.	.	.
8A\J	.	16A/ 16G/	.	16A/	.	.	.	.	.	.	.	.	.	.	.	.	.	.	.	.	.	.	.	8aa\J	.
.	.	16A/JJ 16G/	.	16A/JJ	.	.	.	.	.	.	.	.	.	.	.	.	.	.	.	.	.	.	.	.	.
*	*	*Xrep	*	*	*	*	*	*	*	*	*	*	*	*	*	*	*	*	*	*	*	*	*	*	*
!	!	!	!	!	!	!	!	!	!	!	!	!LO:LB:g=original	!	!	!	!	!	!	!	!	!	!	!	!	!
=22	=22	=22	=22	=22	=22	=22	=22	=22	=22	=22	=22	=22	=22	=22	=22	=22	=22	=22	=22	=22	=22	=22	=22	=22	=22
*tremolo	*	*	*	*	*	*	*	*	*	*	*	*	*ij	*	*	*ij	*	*	*	*	*	*	*	*	*
8B\L	.	16B/LL	.	16B/LL	.	2G\	O-	.	2B\	O-	.	2e\	O-	.	2b\	O-	.	2r	.	2r	.	2b/	.	2bb\	.
.	.	16B/	.	16B/	.	.	.	.	.	.	.	.	.	.	.	.	.	.	.	.	.	.	.	.	.
8B\	.	16B/	.	16B/	.	.	.	.	.	.	.	.	.	.	.	.	.	.	.	.	.	.	.	.	.
.	.	16B/	.	16B/JJ	.	.	.	.	.	.	.	.	.	.	.	.	.	.	.	.	.	.	.	.	.
8B\	.	16B/	.	16b/LL	.	.	.	.	.	.	.	.	.	.	.	.	.	.	.	.	.	.	.	.	.
.	.	16B/	.	16b/	.	.	.	.	.	.	.	.	.	.	.	.	.	.	.	.	.	.	.	.	.
8B\J	.	16B/	.	16b/	.	.	.	.	.	.	.	.	.	.	.	.	.	.	.	.	.	.	.	.	.
.	.	16B/JJ	.	16b/JJ	.	.	.	.	.	.	.	.	.	.	.	.	.	.	.	.	.	.	.	.	.
*Xtremolo	*	*	*	*	*	*	*	*	*	*	*	*	*	*	*	*	*	*	*	*	*	*	*	*	*
8G\L	.	16G/LL	.	16g/LL	.	4G\	-san-	.	4B\	-san-	.	4e\	-san-	.	4gg\	-san-	.	4ee\	.	4gg\	.	4g/	.	4gg\	.
.	.	16G/	.	16g/	.	.	.	.	.	.	.	.	.	.	.	.	.	.	.	.	.	.	.	.	.
8G\	.	16G/	.	16g/	.	.	.	.	.	.	.	.	.	.	.	.	.	.	.	.	.	.	.	.	.
.	.	16G/JJ	.	16g/JJ	.	.	.	.	.	.	.	.	.	.	.	.	.	.	.	.	.	.	.	.	.
8E\	.	16E/LL	.	16e/LL	.	4G\	-na	.	4B\	-na	.	4e\	-na	.	4ee\	-na	.	4gg\	.	4ee\	.	4e/	.	4ee\	.
.	.	16E/	.	16e/	.	.	.	.	.	.	.	.	.	.	.	.	.	.	.	.	.	.	.	.	.
8E\J	.	16E/	.	16e/	.	.	.	.	.	.	.	.	.	.	.	.	.	.	.	.	.	.	.	.	.
.	.	16E/JJ	.	16e/JJ	.	.	.	.	.	.	.	.	.	.	.	.	.	.	.	.	.	.	.	.	.
=23	=23	=23	=23	=23	=23	=23	=23	=23	=23	=23	=23	=23	=23	=23	=23	=23	=23	=23	=23	=23	=23	=23	=23	=23	=23
8BB/L	.	16B/LL	.	16B/LL	.	4G\	in	.	4G/	in	.	4e\	in	.	4b\	in	.	4ee\	.	4gg\	.	4b/	.	4b/	.
.	.	16B/	.	16B/	.	.	.	.	.	.	.	.	.	.	.	.	.	.	.	.	.	.	.	.	.
8BB/	.	16B/	.	16B/	.	.	.	.	.	.	.	.	.	.	.	.	.	.	.	.	.	.	.	.	.
.	.	16B/JJ	.	16B/JJ	.	.	.	.	.	.	.	.	.	.	.	.	.	.	.	.	.	.	.	.	.
8GG/	.	16e\LL	.	16g/LL	.	4G\	ex-	.	4B\	ex-	.	4e\	ex-	.	4b\	ex-	.	4gg\	.	4ee\	.	4g/	.	4g/	.
.	.	16e\	.	16g/	.	.	.	.	.	.	.	.	.	.	.	.	.	.	.	.	.	.	.	.	.
8GG/J	.	16e\	.	16g/	.	.	.	.	.	.	.	.	.	.	.	.	.	.	.	.	.	.	.	.	.
.	.	16e\JJ	.	16g/JJ	.	.	.	.	.	.	.	.	.	.	.	.	.	.	.	.	.	.	.	.	.
!LO:LB:g=original	!	!	!	!	!	!	!	!	!	!	!	!	!	!	!	!	!	!	!	!	!	!	!	!	!
8E/L	.	16G/LL	.	16e/LL	.	4G\	-cel-	.	4e\	-cel-	.	4e\	-cel-	.	4b\	-cel-	.	4ee\	.	4gg\	.	4e/	.	4e/	.
.	.	16G/	.	16e/	.	.	.	.	.	.	.	.	.	.	.	.	.	.	.	.	.	.	.	.	.
8E/	.	16G/	.	16e/	.	.	.	.	.	.	.	.	.	.	.	.	.	.	.	.	.	.	.	.	.
.	.	16G/JJ	.	16e/JJ	.	.	.	.	.	.	.	.	.	.	.	.	.	.	.	.	.	.	.	.	.
!	!	!	!	!	!	!LO:TX:b:t=Verte Cito:mod=	!	!	!	!	!	!	!	!	!	!	!	!	!	!	!	!	!	!	!
8BB/	.	16E/LL	.	16B/LL	.	4G\	-ſis	.	4B\	-sis	.	4e\	-sis	.	4b\	-sis	.	4gg\	.	4ee\	.	4b/	.	4b/	.
*	*	*	*	*	*	*	*	*	*	*	*	*	*Xij	*	*	*	*	*	*	*	*	*	*	*	*
.	.	16E/	.	16B/	.	.	.	.	.	.	.	.	.	.	.	.	.	.	.	.	.	.	.	.	.
8BB/J	.	16E/	.	16B/	.	.	.	.	.	.	.	.	.	.	.	.	.	.	.	.	.	.	.	.	.
.	.	16E/JJ	.	16B/JJ	.	.	.	.	.	.	.	.	.	.	.	.	.	.	.	.	.	.	.	.	.
!	!	!	!	!	!	!LO:PB:g=original	!	!	!	!	!	!	!	!	!	!	!	!LO:LB:g=original	!	!	!	!	!	!	!
=24	=24	=24	=24	=24	=24	=24	=24	=24	=24	=24	=24	=24	=24	=24	=24	=24	=24	=24	=24	=24	=24	=24	=24	=24	=24
1AA/	.	16d/LL 16D/	.	16f#/LL 16A/	.	2D\	O-	.	2A\	O-	.	2f#\	O-	.	2a\	O-	.	4f#/	.	4dd\	.	4dd\	.	4ff#\	.
.	.	16d/ 16D/	.	16f#/ 16A/	.	.	.	.	.	.	.	.	.	.	.	.	.	.	.	.	.	.	.	.	.
.	.	16d/ 16D/	.	16f#/ 16A/	.	.	.	.	.	.	.	.	.	.	.	.	.	.	.	.	.	.	.	.	.
.	.	16d/ 16D/	.	16f#/ 16A/	.	.	.	.	.	.	.	.	.	.	.	.	.	.	.	.	.	.	.	.	.
.	.	16d/ 16D/	.	16f#/ 16A/	.	.	.	.	.	.	.	.	.	.	.	.	.	2f#/	.	2dd\	.	2dd\	.	2ff#\	.
.	.	16d/ 16D/	.	16f#/ 16A/	.	.	.	.	.	.	.	.	.	.	.	.	.	.	.	.	.	.	.	.	.
.	.	16d/ 16D/	.	16f#/ 16A/	.	.	.	.	.	.	.	.	.	.	.	.	.	.	.	.	.	.	.	.	.
.	.	16d/JJ 16D/	.	16f#/ 16A/	.	.	.	.	.	.	.	.	.	.	.	.	.	.	.	.	.	.	.	.	.
.	.	16d/LL 16D/	.	16f#/ 16A/	.	4D\	-san-	.	4F#/	-san-	.	4f#\	-san-	.	4a\	-san-	.	.	.	.	.	.	.	.	.
.	.	16d/ 16D/	.	16f#/ 16A/	.	.	.	.	.	.	.	.	.	.	.	.	.	.	.	.	.	.	.	.	.
.	.	16d/ 16D/	.	16f#/ 16A/	.	.	.	.	.	.	.	.	.	.	.	.	.	.	.	.	.	.	.	.	.
.	.	16d/ 16D/	.	16f#/ 16A/	.	.	.	.	.	.	.	.	.	.	.	.	.	.	.	.	.	.	.	.	.
!	!	!	!	!	!	!	!	!	!LO:TX:b:t=V.C.:mod=	!	!	!	!	!	!	!	!	!	!	!	!	!	!	!	!
.	.	16d/ 16D/	.	16f#/ 16A/	.	4D\	-na	.	4d\	-na	.	4f#\	-na	.	4a\	-na	.	4f#/	.	4dd\	.	4dd\	.	4ff#\	.
.	.	16d/ 16D/	.	16f#/ 16A/	.	.	.	.	.	.	.	.	.	.	.	.	.	.	.	.	.	.	.	.	.
.	.	16d/ 16D/	.	16f#/ 16A/	.	.	.	.	.	.	.	.	.	.	.	.	.	.	.	.	.	.	.	.	.
.	.	16d/JJ 16D/	.	16f#/JJ 16A/	.	.	.	.	.	.	.	.	.	.	.	.	.	.	.	.	.	.	.	.	.
!	!	!	!	!	!	!	!	!	!LO:PB:g=original	!	!	!	!	!	!	!	!	!	!	!	!	!	!	!	!
=25	=25	=25	=25	=25	=25	=25	=25	=25	=25	=25	=25	=25	=25	=25	=25	=25	=25	=25	=25	=25	=25	=25	=25	=25	=25
1AA/	.	16c#\LL	.	16g/LL 16A/	.	4A\	in	.	4e\	in	.	4g\	in	.	4cc#\	in	.	4a/	.	4ee\	.	4cc#\	.	4gg\	.
.	.	16c#\	.	16g/ 16A/	.	.	.	.	.	.	.	.	.	.	.	.	.	.	.	.	.	.	.	.	.
.	.	16c#\	.	16g/ 16A/	.	.	.	.	.	.	.	.	.	.	.	.	.	.	.	.	.	.	.	.	.
.	.	16c#\	.	16g/ 16A/	.	.	.	.	.	.	.	.	.	.	.	.	.	.	.	.	.	.	.	.	.
.	.	16c#\	.	16g/ 16A/	.	4A\	ex-	.	4e\	ex-	.	4g\	ex-	.	4cc#\	ex-	.	2a/	.	2ee\	.	2cc#\	.	2gg\	.
.	.	16c#\	.	16g/ 16A/	.	.	.	.	.	.	.	.	.	.	.	.	.	.	.	.	.	.	.	.	.
.	.	16c#\	.	16g/ 16A/	.	.	.	.	.	.	.	.	.	.	.	.	.	.	.	.	.	.	.	.	.
.	.	16c#\JJ	.	16g/ 16A/	.	.	.	.	.	.	.	.	.	.	.	.	.	.	.	.	.	.	.	.	.
.	.	16c#\LL	.	16g/ 16A/	.	2AA/	-cel-	.	2c#\	-cel-	.	2e\	-cel-	.	2a\	-cel-	.	.	.	.	.	.	.	.	.
.	.	16c#\	.	16g/ 16A/	.	.	.	.	.	.	.	.	.	.	.	.	.	.	.	.	.	.	.	.	.
.	.	16c#\	.	16g/ 16A/	.	.	.	.	.	.	.	.	.	.	.	.	.	.	.	.	.	.	.	.	.
.	.	16c#\	.	16g/ 16A/	.	.	.	.	.	.	.	.	.	.	.	.	.	.	.	.	.	.	.	.	.
.	.	16c#\	.	16g/ 16A/	.	.	.	.	.	.	.	.	.	.	.	.	.	4a/	.	4ee\	.	4cc#\	.	4gg\	.
.	.	16c#\	.	16g/ 16A/	.	.	.	.	.	.	.	.	.	.	.	.	.	.	.	.	.	.	.	.	.
.	.	16c#\	.	16g/ 16A/	.	.	.	.	.	.	.	.	.	.	.	.	.	.	.	.	.	.	.	.	.
.	.	16c#\JJ	.	16g/JJ 16A/	.	.	.	.	.	.	.	.	.	.	.	.	.	.	.	.	.	.	.	.	.
*	*	*Xtremolo	*	*Xtremolo	*	*	*	*	*	*	*	*	*	*	*	*	*	*	*	*	*	*	*	*	*
=26	=26	=26	=26	=26	=26	=26	=26	=26	=26	=26	=26	=26	=26	=26	=26	=26	=26	=26	=26	=26	=26	=26	=26	=26	=26
*^	*	*	*	*	*	*	*	*	*	*	*	*	*	*	*	*	*	*	*	*	*	*	*	*	*
!	!	!LO:MO:null:mod=!LO&colon;DY&colon;ed=brack	!	!LO:MO:null:mod=!LO&colon;DY&colon;ed=brack	!	!LO:MO:null:mod=!LO&colon;DY&colon;ed=brack	!	!	!LO:MO:null:mod=!LO&colon;DY&colon;ed=brack	!	!	!LO:MO:null:mod=!LO&colon;DY&colon;ed=brack	!	!	!	!	!	!LO:MO:null:mod=!LO&colon;DY&colon;ed=brack	!	!LO:MO:null:mod=!LO&colon;DY&colon;ed=brack	!	!LO:MO:null:mod=!LO&colon;DY&colon;ed=brack	!	!	!	!
!LO:TX:t=P:problem=górny głos w kluczu wiolinowym dolny w basowym	!	!	!	!	!	!	!	!	!	!	!	!	!	!	!LO:DY:a	!	!	!	!	!	!	!	!	!	!	!
!	!	!LO:MO:null:mod=p	!	!LO:MO:null:mod=p	!	!LO:MO:null:mod=p	!	!	!LO:MO:null:mod=p	!	!	!LO:MO:null:mod=p	!	!	!LO:DY:ed=brack	!	!	!LO:MO:null:mod=p	!	!LO:MO:null:mod=p	!	!LO:MO:null:mod=p	!	!	!	!
8r	4D\	.	4d\	.	4f#/ 4A/	.	4D/	-sis	.	4d\	-sis	.	4f#\	-sis	p	4a\	-sis	.	8f#/	.	8dd\	.	8dd\	p	8ff#\	p
*clefG2	*	*	*	*	*	*	*	*	*	*	*	*	*	*	*	*	*Xij	*	*	*	*	*	*	*	*	*
16bb/LL	.	.	.	.	.	.	.	.	.	.	.	.	.	.	.	.	.	.	8r	.	8r	.	8r	.	8r	.
16aa/JJ	.	.	.	.	.	.	.	.	.	.	.	.	.	.	.	.	.	.	.	.	.	.	.	.	.	.
8ff#/L	4r	.	4r	.	4r	.	4r	.	.	4r	.	.	4r	.	.	4r	.	.	4r	.	4r	.	4r	.	4r	.
8dd/J	.	.	.	.	.	.	.	.	.	.	.	.	.	.	.	.	.	.	.	.	.	.	.	.	.	.
8r	4A\	.	4A/	.	4g/ 4A/	.	2r	.	.	2r	.	.	2r	.	.	2r	.	.	8a/	.	8ee\	.	8cc#\	.	8gg\	.
16bb/LL	.	.	.	.	.	.	.	.	.	.	.	.	.	.	.	.	.	.	8r	.	8r	.	8r	.	8r	.
16aa/JJ	.	.	.	.	.	.	.	.	.	.	.	.	.	.	.	.	.	.	.	.	.	.	.	.	.	.
8gg/L	4r	.	4r	.	4r	.	.	.	.	.	.	.	.	.	.	.	.	.	4r	.	4r	.	4r	.	4r	.
8ee/J	.	.	.	.	.	.	.	.	.	.	.	.	.	.	.	.	.	.	.	.	.	.	.	.	.	.
!	!	!	!	!	!	!	!	!	!	!	!	!	!	!	!	!	!	!	!	!	!	!	!LO:LB:g=original	!	!	!
=27	=27	=27	=27	=27	=27	=27	=27	=27	=27	=27	=27	=27	=27	=27	=27	=27	=27	=27	=27	=27	=27	=27	=27	=27	=27	=27
8r	4D\	.	4F#/	.	4A/	.	00r	.	.	00r	.	.	00r	.	.	00r	.	.	8f#/	.	8dd\	.	8dd\	.	8ff#\	.
16dd/LL	.	.	.	.	.	.	.	.	.	.	.	.	.	.	.	.	.	.	8r	.	8r	.	8r	.	8r	.
16ff#/JJ	.	.	.	.	.	.	.	.	.	.	.	.	.	.	.	.	.	.	.	.	.	.	.	.	.	.
8bb/L	4r	.	4r	.	4r	.	.	.	.	.	.	.	.	.	.	.	.	.	4r	.	4r	.	4r	.	4r	.
16aa/Jk	.	.	.	.	.	.	.	.	.	.	.	.	.	.	.	.	.	.	.	.	.	.	.	.	.	.
16r	.	.	.	.	.	.	.	.	.	.	.	.	.	.	.	.	.	.	.	.	.	.	.	.	.	.
8r	4A\	.	4C#/	.	4A/	.	.	.	.	.	.	.	.	.	.	.	.	.	8a/	.	8ee\	.	8cc#\	.	8ee\	.
16cc#/LL	.	.	.	.	.	.	.	.	.	.	.	.	.	.	.	.	.	.	8r	.	8r	.	8r	.	8r	.
16ee/JJ	.	.	.	.	.	.	.	.	.	.	.	.	.	.	.	.	.	.	.	.	.	.	.	.	.	.
8bb/L	4r	.	4r	.	4r	.	.	.	.	.	.	.	.	.	.	.	.	.	4r	.	4r	.	4r	.	4r	.
16aa/Jk	.	.	.	.	.	.	.	.	.	.	.	.	.	.	.	.	.	.	.	.	.	.	.	.	.	.
16r	.	.	.	.	.	.	.	.	.	.	.	.	.	.	.	.	.	.	.	.	.	.	.	.	.	.
*v	*v	*	*	*	*	*	*	*	*	*	*	*	*	*	*	*	*	*	*	*	*	*	*	*	*	*
!	!	!	!	!	!	!	!	!	!	!	!	!	!	!	!	!	!	!	!	!LO:LB:g=original	!	!	!	!LO:LB:g=original	!
=28	=28	=28	=28	=28	=28	=28	=28	=28	=28	=28	=28	=28	=28	=28	=28	=28	=28	=28	=28	=28	=28	=28	=28	=28	=28
!	!	!	!LO:MO:null:mod=!LO&colon;DY&colon;ed=brack	!	!	!	!	!	!	!	!	!	!	!	!	!	!	!	!	!	!	!	!	!	!
!	!	!	!	!	!	!	!	!	!	!	!	!	!	!	!	!	!	!	!	!	!	!	!LO:MO:mod=!null:null	!	!
!	!	!	!LO:MO:null:mod=pp	!	!LO:DY:rj	!	!	!	!	!	!	!	!	!	!	!	!	!	!LO:DY:t=pp.	!	!LO:DY:t=pp.	!	!LO:DY:rj:t=pp.	!	!
1r	.	4D/	.	4f#/ 4A/	pp	.	.	.	.	.	.	.	.	.	.	.	.	4f#/	pp	4dd\	pp	4f#/	pp	4dd\	pp
.	.	4D/	.	4r	.	.	.	.	.	.	.	.	.	.	.	.	.	4r	.	4r	.	4r	.	4r	.
.	.	4E/	.	4g/ 4A/	.	.	.	.	.	.	.	.	.	.	.	.	.	4a/	.	4ee\	.	2r	.	2r	.
.	.	4E/	.	4r	.	.	.	.	.	.	.	.	.	.	.	.	.	4r	.	4r	.	.	.	.	.
!	!	!LO:LB:g=original	!	!LO:LB:g=original	!	!	!	!	!	!	!	!	!	!	!	!	!	!	!	!	!	!	!	!	!
=29	=29	=29	=29	=29	=29	=29	=29	=29	=29	=29	=29	=29	=29	=29	=29	=29	=29	=29	=29	=29	=29	=29	=29	=29	=29
!	!	!	!	!	!	!	!	!	!	!	!	!	!	!	!	!	!	!	!LO:DY:t=pp.	!	!	!	!	!	!
!	!	!	!	!	!	!	!	!	!	!	!	!	!	!	!	!	!	!	!LO:MO:null:mod=.	!	!	!	!	!	!
2r	.	4D/	.	4f#/ 4A/	.	.	.	.	.	.	.	.	.	.	.	.	.	4f#/	pp	4dd\	.	0r	.	0r	.
.	.	4D/	.	4f#/ 4A/	.	.	.	.	.	.	.	.	.	.	.	.	.	2f#/	.	2dd\	.	.	.	.	.
!LO:MO:mod=!null:null	!	!	!	!	!	!	!	!	!	!	!	!	!	!	!	!	!	!	!	!	!	!	!	!	!
!LO:CL:ed	!	!	!	!	!	!	!	!	!	!	!	!	!	!	!	!	!	!	!	!	!	!	!	!	!
*clefF4	*	*	*	*	*	*	*	*	*	*	*	*	*	*	*	*	*	*	*	*	*	*	*	*	*
!	!LO:DY:t=po.	!	!	!	!	!	!	!	!	!	!	!	!	!	!	!	!	!	!	!	!	!	!	!	!
!	!LO:MO:mod=pp	!	!	!	!	!	!	!	!	!	!	!	!	!	!	!	!	!	!	!	!	!	!	!	!
4D\	p	4D/	.	4f#/ 4A/	.	.	.	.	.	.	.	.	.	.	.	.	.	.	.	.	.	.	.	.	.
4D\	.	4D/	.	4f#/ 4A/	.	.	.	.	.	.	.	.	.	.	.	.	.	4f#/	.	4dd\	.	.	.	.	.
=30	=30	=30	=30	=30	=30	=30	=30	=30	=30	=30	=30	=30	=30	=30	=30	=30	=30	=30	=30	=30	=30	=30	=30	=30	=30
!	!	!	!	!	!	!	!	!	!	!	!	!	!	!	!	!	!	!LO:MO:mod=!null:null	!	!	!	!	!	!	!
!	!	!LO:MO:mod=2.D	!	!	!	!	!	!	!	!	!	!	!	!	!	!	!	!LO:N:vis=2	!	!	!	!	!	!	!
4D\	.	2D/	.	2.f#/ 2.A/	.	.	.	.	.	.	.	.	.	.	.	.	.	2.f#/	.	2.dd\	.	.	.	.	.
4r	.	.	.	.	.	.	.	.	.	.	.	.	.	.	.	.	.	.	.	.	.	.	.	.	.
!	!	!LO:MO:null:mod=.	!	!	!	!	!	!	!	!	!	!	!	!	!	!	!	!	!	!	!	!	!	!	!
2r	.	2r	.	.	.	.	.	.	.	.	.	.	.	.	.	.	.	.	.	.	.	.	.	.	.
!	!	!LO:MO:null:mod=4r	!	!	!	!	!	!	!	!	!	!	!	!	!	!	!	!	!	!	!	!	!	!	!
.	.	.	.	4r	.	.	.	.	.	.	.	.	.	.	.	.	.	4r	.	4r	.	.	.	.	.
==	==	==	==	==	==	==	==	==	==	==	==	==	==	==	==	==	==	==	==	==	==	==	==	==	==
*-	*-	*-	*-	*-	*-	*-	*-	*-	*-	*-	*-	*-	*-	*-	*-	*-	*-	*-	*-	*-	*-	*-	*-	*-	*-
!!!system-decoration: [(s1,s2)][(s3,s4)][(s5,s6,s7,s8)][(s9,s10)]s11
!!!RDF**dynam: fp = fp.
!!!ENC: Berenika Jozajtis
!!!END: 2021-12-08
!!!ENC: Leszek Kubiak
!!!END: 2021-12-13
!!!ENC-modern: Andrzej Borzym
!!!END-modern: 2022-08-22
